X: 1
T: No-Name March
O: Scandinavia
R: march
Z: 2014 John Chambers <jc:trillian.mit.edu>
S: printed copy of unknown origin
M: 2/4
L: 1/16
K: D
(DF) "A"|:\
A2(AF) d2(dB) | B2A2 A3c |\
efe(d c)(Ac)(e | a)(ba)(g f)(fd)F |\
A2(AF) d2(dB) | B2A2 A3c |
gfe(d c)(AB)c |1 d2d2 d2(AF) |2 d2d2 d2{d}f2 \
"B"|:\
fdAF A3f | fdBG B3g |\
g{ag}ec(e A)(ce)g | (ga)(^ga) fdA[fd] |
fdAF A3f | fdBG B3=g |\
g{ag}ec(e A)(ce)c |1 d2d2 d2{d}f2 :|2 d2d2 d2(AF) \
"C"|:\
A,2F2 F2(ED) | B,2G2 G-(GE)(D |
{D}C2)(CE) A,(CE)(G | BA)(GA) F2(FD) |\
A,2F2 F2(ED) | B,2G2 GEED |\
C2(CE) A,(C[EC])(C |1 D2)(DF) D2(FD) :|2 D2(DF) D2 |]
